src/assets/img/icons/figma.svg

<svg fill="#f24e1e" viewBox="0 0 24 24" xmlns="http://www.w3.org/2000/svg"><path d="m12 12a4 4 0 1 1 8 0 4 4 0 0 1 -8 0zm-8 8a4 4 0 0 1 4-4h4v4a4 4 0 1 1 -8 0zm8-20v8h4a4 4 0 1 0 0-8zm-8 4a4 4 0 0 0 4 4h4v-8h-4a4 4 0 0 0 -4 4zm0 8a4 4 0 0 0 4 4h4v-8h-4a4 4 0 0 0 -4 4z"/></svg>

<svg fill='#f24e1e' role="img" viewBox="0 0 24 24" xmlns="http://www.w3.org/2000/svg"><title>Figma icon</title><path d="M12 12a4 4 0 1 1 8 0 4 4 0 0 1-8 0zM4 20a4 4 0 0 1 4-4h4v4a4 4 0 1 1-8 0zM12 0v8h4a4 4 0 1 0 0-8h-4zM4 4a4 4 0 0 0 4 4h4V0H8a4 4 0 0 0-4 4zM4 12a4 4 0 0 0 4 4h4V8H8a4 4 0 0 0-4 4z"/></svg>
